X:2102
T: Frost is All Over jig
O:england
S:Douglas Cole, Ir-Trad, 7/97
R:jig
D:Matt Cranitch's "Give it Sthick"
M:6/8
K:D
| def edc|dAF GFE|DFA DFA|Bcd ecA|
def edc|dAF GFE|DFA DFA|B2 c d3:|
|:~f3 agf|~g3 bag| ~f3 afd |1 gfg efg|
~f3 afd|~g3 bag|fga efg|fdc d3 :|2
~g3 e2 g|fga efg|fdB AFA|Bcd ece|fd/e/f gfe||
